X:199
T: DER ABT IST NICHT ZU HAUSE
N: K2562
O: Europa, Mitteleuropa, Deutschland, Dresden
R: Kinder - Lied, Gesellschafts - Spiel
M: 2/4
L: 1/16
K: G
D2 | G2G2G2B2 | G4D2
D2 | G2G2G2B2 | G4D2
D2 | A2A2A2A2 | B2G2G2
D2 | A2A2A2A2 | B2G2G4
ddddd4

